Hatter-kde/actions/22/im-qq.svg

<svg xmlns="http://www.w3.org/2000/svg" viewBox="0 0 22 22">
  <defs id="defs3051">
    <style type="text/css" id="current-color-scheme">
      .ColorScheme-Text {
        color:#363636;
      }
      </style>
  </defs>
 <path 
     style="fill:currentColor;fill-opacity:1;stroke:none" 
     d="M 11 3 C 6.568 3 3 6.568 3 11 C 3 15.432 6.568 19 11 19 C 13.035317 19 14.882005 18.241107 16.291016 16.998047 L 18.292969 19 L 19 18.292969 L 16.998047 16.291016 C 18.241107 14.882005 19 13.035317 19 11 C 19 6.568 15.432 3 11 3 z M 11 4 C 14.878 4 18 7.122 18 11 C 18 12.758463 17.354271 14.357001 16.291016 15.583984 L 14.707031 14 L 14 14.707031 L 15.583984 16.291016 C 14.357001 17.354271 12.758463 18 11 18 C 7.122 18 4 14.878 4 11 C 4 7.122 7.122 4 11 4 z "
     class="ColorScheme-Text"
     />
</svg>

<?xml version="1.0" encoding="UTF-8"?>
<svg viewBox="0 0 22 22" xmlns="http://www.w3.org/2000/svg">
 <defs id="defs3051">
  <style id="current-color-scheme" type="text/css">.ColorScheme-Text {
        color:#363636;
      }</style>
 </defs>
 <path class="ColorScheme-Text" d="m11 3c-4.432 0-8 3.568-8 8s3.568 8 8 8c2.0353 0 3.882-0.75889 5.291-2.002l2.002 2.002 0.70703-0.70703-2.002-2.002c1.2431-1.409 2.002-3.2557 2.002-5.291 0-4.432-3.568-8-8-8zm0 1c3.878 0 7 3.122 7 7 0 1.7585-0.64573 3.357-1.709 4.584l-1.584-1.584-0.70703 0.70703 1.584 1.584c-1.227 1.0633-2.8255 1.709-4.584 1.709-3.878 0-7-3.122-7-7s3.122-7 7-7z" fill="currentColor"/>
</svg>
